!!!COM:	Tinctoris, Johannes
!!!CDT:	~1435///-1511//
!!!OPR:	Missa Sine nomine i
!!!ONM:	4
!!!OTL:	Sanctus
!!!AGN:	Mass; Sanctus
!!!SCT:	Tin1002d
!!!SCA:	Tin1002d
!!!voices:	3
**kern	**kern	**kern
*staff3	*staff2	*staff1
*Ivox	*Ivox	*Ivox
*I"Bassus	*I"Tenor	*I"Altus
*I'B	*I'T	*I'A
*>[A,B,C,D]	*>[A,B,C,D]	*>[A,B,C,D]
*>A	*>A	*>A
*clefF4	*clefF4	*clefGv2
*k[b-e-]	*k[b-e-]	*k[b-e-]
*M3/1	*M3/1	*M3/1
*met(O)	*met(O)	*met(O)
!!section: Sanctus
!!!OMD: Sanctus
=1-	=1-	=1-
2.C/	1.C	0c
4BB-/	.	.
4AA/	.	.
4FF/	.	.
2C/	2E-\	.
1GG	1D	1B-
=2	=2	=2
2.CC/	2C/	1.c
.	1E-	.
2CC/	.	.
4EE-/	.	.
2DD/	2F\	2d\
[1CC	[1G	2.e-\
.	.	8d\L
.	.	8c\J
=3	=3	=3
2CC/]	0G]	2e-\
2.GG/	.	2.d\
4AA/	.	4c\
4BB-/	.	2B-\
4C/	.	.
1D	1F#i	1A
=4	=4	=4
2r	2G\	[0.G
2.E-\	4r	.
.	2C/	.
4D\	4D\	.
4C/	4E-\	.
8BB-/L	8D/L	.
8AA/J	8C/J	.
2GG/	2BB-/	.
[2C/	[2E-\	.
=5	=5	=5
4C/]	4E-\]	0.G]
8BB-/L	8D/L	.
8AA/J	8C/J	.
2BB-/	2D\	.
2C/	1.C	.
2CC/	.	.
2r	.	.
[2EE-/	2GG/	.
=6	=6	=6
4EE-/]	2.G\	2.E-/
4FF/	.	.
2GG/	.	.
.	4F\	4F/
1CC	1E-	2G/
.	.	1C
2FF/	1r	.
[2EE-/	.	[2B-\
=7	=7	=7
2EE-/]	2E-\	4B-\]
.	.	4c\
2DD/	2F\	2d\
2EE-/	2G\	2G/
4r	2C/	2.c\
2.FF/	.	.
.	2F\	.
.	.	4A/
4GG/	4D\	4B-\
4EE-/	4E-\	4c\
=8	=8	=8
2DD/	2F\	2d\
2.CC/	2.G\	2.e-\
4DD/	4F\	4d\
2EE-/	2E-\	1c
2FF/	1D	.
2GG/	.	2Bni\
=9	=9	=9
2CC/	2.C/	0c
2.FF/	.	.
.	4BB-/	.
.	4AA/	.
4EE-/	4GG/	.
2CC/	1C	.
1DD	.	1r
.	2BBni/	.
=10	=10	=10
2CC/	1C	1.e-
2.C/	.	.
.	2r	.
8BB-/L	.	.
8C/J	.	.
2D\	1GG	1d
2BB-/	.	.
2C/	[2G\	[2c\
=11	=11	=11
1AA	4G\]	1c]
.	8F#i\L	.
.	8Eni\J	.
.	2F#i\	.
1GG	1Gni	1B-
2DD/	2.Fn\	[1A
[2FF/	.	.
.	4E-i\	.
=12	=12	=12
2FF/]	1C	2A/]
2EE-/	.	1G
2.CC/	2r	.
.	2.E-\	2.c\
2C/	.	.
2D\	4F\	4A/
.	4D\	4B-\
4C/	4E-\	[4c\
=13	=13	=13
4AA/	4F\	4c\]
4BB-/	2G\	4B-\
1C	.	2.G/
.	2E-\	.
.	8D/L	8F/L
.	8C/J	8E-/J
2D\	4.BBni/	2D/
.	8AA/	.
2.E-\	2.C/	1C
8D/L	8BB-i/L	.
8C/J	8AA/J	.
=14	=14	=14
4BB-/	2GG/	2r
4AA/	.	.
2C/	2G\	2.E-/
2r	2.C/	.
.	.	4F/
1.C	.	2.G/
.	4D\	.
.	2.E-\	.
.	.	4A-i/
.	.	4G/
.	4F\	8F/L
.	.	8E-/J
=15	=15	=15
1GG	1G	1D
1C	1G	1E-
1GG	2.G\	1D
.	4F\	.
=16	=16	=16
2C/	4E-\	2r
.	8D/L	.
.	8C/J	.
4GG/	4D\	2.d\
2BB-/	2GG/	.
4AA/	4AA/	4c\
2GG/	2BB-/	4B-\
.	.	8A/L
.	.	8G/J
2FF/	2.C/	2A/
[2C/	.	[2G/
.	4D\	.
=17	=17	=17
4C/]	4E-\	4G/]
4AA/	4F\	4A/
1GG	4G\	4B-\
.	4A\	4c\
.	2B-\	2d\
2.C/	1G	2.e-\
4GG/	.	4d\
2BB-/	2F\	[2d\
=18	=18	=18
1C	1E-	2d\]
.	.	2c\
0GG	0D	0Bn
=19	=19	=19
2EE-/	1G	1r
2.CC/	.	.
.	2.G\	2.e-\
4DD/	.	.
4EE-/	.	.
4FF/	8F\L	8d\L
.	8E-\J	8c\J
2GG/	2D\	2B-\
4r	2C/	2c\
4AA/	.	.
=20	=20	=20
4GG/	4BB-/	4d\
4AA/	4C/	2c\
2GG/	2D\	.
.	.	4Bni\
1CC	2.E-\	1c
.	8D/L	.
.	8C/J	.
2GG/	2BB-/	2d\
4r	2C/	2e-\
4C/	.	.
=21	=21	=21
4BB-/	4D\	4r
4C/	2C/	4e-\
2GG/	.	2d\
.	4BB-/	.
2.E-\	1C	2.G/
8D/L	.	8F/L
8C/J	.	8E-/J
2BB-/	2GG/	2D/
2C/	4r	2E-/
.	4C/	.
=22	=22	=22
4D\	4BB-/	4F/
2C/	4C/	4E-/
.	2GG/	2D/
4BBni/	.	.
0C	2.E-\	1C
.	4D\	.
.	4E-\	1C
.	4F\	.
.	[2G\	.
=23	=23	=23
2.C/	4G\]	2r
.	4F\	.
.	4E-\	2.E-/
4BB-/	4D\	.
*M3/1	*	*
*met(3/2)	*	*
3.GG/	1D	.
.	.	4D/
6AA/	.	4E-/
3BB-/	.	.
.	.	4F/
*M3/1	*	*M3/1
*met(O)	*	*met(3/2)
2C/	2E-\	3G/
.	.	3A/
2D\	4F\	.
.	.	3B-\
.	4D\	.
=24	=24	=24
2AA/	2C/	3.c\
4BB-/	4D\	6B-\
.	.	6A/
2.C/	4C/	.
.	.	6G/
*	*	*M3/1
*	*	*met(O)
.	2E-\	2A/
2.D\	2.F\	2.B-\
4C/	4E-\	4A/
2BB-/	[2D\	[2G/
=25	=25	=25
1AA	2D\]	2G/]
.	2C/	2F#i/
1GG	1D	0G
2r	2.C/	.
[2C/	.	.
.	4D\	.
=26	=26	=26
2C/]	2E-\	1r
1.FF	2.F\	.
.	.	1A
.	4E-\	.
.	2C/	.
4GG/	4BB-/	1B-
4EE-/	4C/	.
2DD/	2D\	.
=27	=27	=27
2CC/	2E-\	1.c
4r	2C/	.
2C/	.	.
.	2AA/	.
4AA/	.	.
4BB-/	4GG/	1d
4C/	4AA/	.
2D\	2BB-/	.
[2C/	4C/	[2e-\
.	[4E-\	.
=28	=28	=28
4C/]	4E-\]	1e-]
8BB-/L	4F\	.
8AA/J	.	.
2GG/	2G\	.
2FF/	2A-\	1f
2DD/	2F\	.
2CC/	2G\	2e-\
4r	4r	[2d\
[4GG/	[4G\	.
=29	=29	=29
4GG/]	8G\L]	4d\]
.	8F\J	.
4AA/	4E-\	4c\
2BB-/	2D\	2B-\
2C/	2r	4A/
.	.	4G/
2E-\	2.G\	1c
1D	.	.
.	8F\L	.
.	8E-\J	.
.	2F\	2B-\
=30	=30	=30
1C	1G	2.e-\
.	.	8d\L
.	.	8e-\J
2r	2.F\	4d\
.	.	4c\
2D\	.	1f
.	4E-\	.
2BB-/	2D\	.
2C/	2C/	2e-\
=31	=31	=31
2.BB-/	2.D\	2.d\
8AA/L	4E-\	8c\L
8GG/J	.	8B-\J
2FF/	2F\	2A/
2EE-/	2G\	1G
1CC	2E-\	.
.	2C/	[2c\
=32	=32	=32
1GG	1D	2c\]
.	.	2Bni\
1r	0C	0c
1r	.	.
=33	=33	=33
0.CCl	0.Cl	0.cl
!!LO:LB:i:g=z
=34||	=34||	=34||
*>B	*>B	*>B
*clefF4	*clefF4	*clefGv2
*k[b-e-]	*k[b-e-]	*k[b-e-]
*M3/1	*M3/1	*M3/1
*met(O|)	*met(O|)	*met(O|)
!!section: Pleni and Osanna I
!!!OMD: Pleni and Osanna I
0.r	1F	1r
.	1.F	1r
.	.	1c
.	4E-\	.
.	4D\	.
=35	=35	=35
0.r	2.C/	1.c
.	8D\L	.
.	8E-\J	.
.	1F	.
.	.	4B-\
.	.	4A/
.	2E-\	2.G/
.	[2C/	.
.	.	8A/L
.	.	8B-/J
=36	=36	=36
0.r	4C/]	1c
.	4BB-/	.
.	2AA/	.
.	2.GG/	2B-\
.	.	2.G/
.	4AA/	.
.	2BB-/	.
.	.	4F/
.	[2C/	2E-/
=37	=37	=37
0.r	2C/]	1D
.	2BBni/	.
.	1C	2C/
.	.	2.E-/
.	1G	.
.	.	4D/
.	.	2C/
=38	=38	=38
*	*	*M3/1
*	*	*met(3/2)
0.r	1F	3D/
.	.	3E-/
.	.	3F/
.	0E-	3G/
.	.	3A/
.	.	3B-\
.	.	3c\
.	.	3d\
.	.	3e-\
=39	=39	=39
*	*	*M3/1
*	*	*met(O|)
0.r	0.D	4f\
.	.	4e-\
.	.	4d\
.	.	4c\
.	.	2d\
.	.	2A/
.	.	2.Bni\
.	.	8A/L
.	.	8Bni/J
=40	=40	=40
1C	2r	0.c
.	1C	.
1AA	.	.
.	1AA	.
2.FF/	.	.
.	[2FF/	.
4GG/	.	.
=41	=41	=41
4AA/	4FF/]	0.r
4BB-/	4GG/	.
2C/	4AA/	.
.	4BB-/	.
*	*M3/1	*
*	*met(3/2)	*
2FF/	3C/	.
.	3D\	.
2GG/	.	.
.	3E-\	.
2AA/	3F\	.
.	3G\	.
2FF/	.	.
.	3A\	.
=42	=42	=42
*	*M3/1	*
*	*met(O|)	*
2GG/	4B-\	0.r
.	4A\	.
4AA/	4G\	.
4BB-/	4F\	.
2C/	2En\	.
2AA/	2F\	.
2BB-/	2G\	.
2C/	[2C/	.
=43	=43	=43
1FF	2C/]	0.r
.	2F\	.
2EE-/	2G\	.
2FF/	1F	.
1GG	.	.
.	2Eni\	.
=44	=44	=44
2r	1F	0.r
2FF/	.	.
2.GG/	2r	.
.	1D	.
4AA/	.	.
2BB-/	.	.
2C/	2E-\	.
=45	=45	=45
2AA/	2F\	0.r
2GG/	1G	.
1BB-	.	.
.	2GG/	.
2C/	2AA/	.
2GG/	2BB-/	.
=46	=46	=46
2AA/	4C/	0.r
.	4D\	.
2.GG/	2.E-\	.
4FF/	4D\	.
2EE-/	2C/	.
1DD	2.BBni/	.
.	4AA/	.
=47	=47	=47
2CC/	1C	1G
1C	.	.
.	1r	2A/
2BB-/	.	1B-
2GG/	1r	.
2FF/	.	[2c\
=48	=48	=48
2.C/	0.r	4c\]
.	.	4B-\
.	.	2G/
4BB-/	.	.
2C/	.	2A/
2D\	.	2F/
2E-\	.	2G/
4D\	.	4F/
4E-\	.	4G/
=49	=49	=49
4F\	1r	4A/
4E-\	.	4G/
4D\	.	4F/
4C/	.	4E-/
2.BBni/	1r	1D
4AA/	.	.
1C	[1G	1r
=50	=50	=50
1r	2G\]	2e-\
.	4F\	4d\
.	4E-\	4e-\
1r	2.D\	4f\
.	.	4e-\
.	.	4d\
.	4E-\	4c\
2BB-/	1F	1d
4AA/	.	.
4BB-/	.	.
=51	=51	=51
4C/	2E-\	1G
4BB-/	.	.
4AA/	2.C/	.
4GG/	.	.
2AA/	.	1c
.	4BB-/	.
2AA/	2C/	.
1DD	2D\	1F
.	2AA/	.
=52	=52	=52
1GG	1BB-	1D
1CC	2C/	2r
.	2.E-\	1C
2.C/	.	.
.	4F\	.
.	[2G\	[2E-/
4BB-/	.	.
=53	=53	=53
2.GG/	1G]	2E-/]
.	.	1D
4AA/	.	.
2BB-/	0G	.
1C	.	2C/
.	.	2E-/
2BB-/	.	2D/
=54	=54	=54
2C/	2r	1C
2.E-\	1C	.
.	.	1G
4D\	.	.
2C/	1E-	.
2r	.	1B-
2GG/	[2D\	.
=55	=55	=55
2DD/	2D\]	1A
2FF/	2C/	.
2CC/	2E-\	2G/
2GG/	2D\	2B-\
2AA/	2.C/	2A/
[2C/	.	[2G/
.	4D\	.
=56	=56	=56
4C/]	2E-\	2G/]
4BB-/	.	.
4AA/	2C/	1c
4GG/	.	.
2FF/	2F\	.
1C	2E-\	1e-
.	1G	.
[2BB-/	.	[2d\
=57	=57	=57
2BB-/]	1F	2d\]
2AA/	.	2c\
2C/	2E-\	2e-\
2D\	2F\	2d\
2AA/	2C/	2c\
2BB-/	2D\	4B-\
.	.	4A/
=58	=58	=58
1C	2E-\	2G/
.	4D\	4F/
.	4E-\	4E-/
1BB-	2F\	2D/
.	1D	1G
1AA	.	.
.	2C/	2F#i/
=59	=59	=59
0GG	1D	0.G
.	2r	.
.	2D\	.
2r	2.E-\	.
[2EE-/	.	.
.	4F\	.
=60	=60	=60
2EE-/]	2G\	0.r
2DD/	2.F\	.
2FF/	.	.
.	4E-\	.
2GG/	4D\	.
.	4C/	.
2DD/	2F\	.
2EE-/	2E-\	.
=61	=61	=61
1FF	4D\	0.r
.	4C/	.
.	4BB-/	.
.	4AA/	.
1EE-	2GG/	.
.	1C	.
1DD	.	.
.	2BBni/	.
=62	=62	=62
2CC/	1C	0.r
2.EE-/	.	.
.	2.E-\	.
4FF/	.	.
2.GG/	.	.
.	4F\	.
.	2.G\	.
4AA/	.	.
[2BB-/	.	.
.	4A\	.
=63	=63	=63
4BB-/]	2.B-\	0.r
4C/	.	.
2D\	.	.
.	4A\	.
2E-\	4G\	.
.	4F\	.
1C	2E-\	.
.	1D	.
2BBni/	.	.
=64	=64	=64
1C	2r	1.G
.	1.C	.
2r	.	.
2AA/	.	1c
1FF	1F	.
.	.	2A/
=65	=65	=65
2GG/	2D\	2B-\
2CC/	2E-\	2.c\
2r	2.F\	.
.	.	4B-\
2FF/	.	4A/
.	4E-\	4G/
2GG/	2D\	2B-\
2AA/	2C/	2c\
=66	=66	=66
2BB-/	2F\	1d
2GG/	1G	.
2C/	.	2e-\
2FF/	2A\	2.f\
2r	2.B-\	.
.	.	4e-\
2GG/	.	4d\
.	4A\	4c\
=67	=67	=67
2C/	2.G\	2e-\
2BB-/	.	2.d\
.	4F\	.
2GG/	2G\	.
.	.	4G/
2AA/	2C/	1c
1GG	1D	.
.	.	2Bni\
=68	=68	=68
0.CCl	0.Cl	0.cl
!!LO:LB:i:g=z
=69||	=69||	=69||
*>C	*>C	*>C
*clefF4	*clefF4	*clefGv2
*k[b-e-]	*k[b-e-]	*k[b-e-]
*M2/1	*M2/1	*M2/1
*met(C|)	*met(C|)	*met(C|)
!!section: Benedictus
!!!OMD: Benedictus
[0C	[0G	[0c
=70	=70	=70
1C]	1G]	0c_
[1FF	2.A-i\	.
.	4G\	.
=71	=71	=71
2FF/]	2F\	0c_
2EE-/	4E-\	.
.	4D\	.
[1FF	[1C	.
=72	=72	=72
1FF]	2C/]	0c]
.	2D\	.
[1CC	2E-\	.
.	2F\	.
=73	=73	=73
2CC/]	1.G	[0G
2DD/	.	.
2EE-/	.	.
2FF/	4F\	.
.	4E-\	.
=74	=74	=74
1GG	1D	0G_
[1C	2r	.
.	[2E-\	.
=75	=75	=75
2C/]	2E-\]	0G_
2BB-/	2D\	.
2GG/	2BB-/	.
[2C/	[2E-\	.
=76	=76	=76
2C/]	2E-\]	0G]
4BB-/	4D\	.
4AA/	4E-\	.
1GG	2D\	.
.	2E-\	.
=77	=77	=77
0FF	[0F	[0A
=78	=78	=78
1r	0F]	0A_
[1DD	.	.
=79	=79	=79
2DD/]	1r	0A_
2EE-/	.	.
[1FF	[1C	.
=80	=80	=80
2FF/]	2C/]	0A]
2DD/	2D\	.
2FF/	1C	.
4EE-/	.	.
4FF/	.	.
=81	=81	=81
1GG	1BB-	[0B-
2DD/	[1D	.
[2GG/	.	.
=82	=82	=82
4GG/]	2D\]	0B-_
4FF/	.	.
2EE-/	2E-\	.
1DD	1F	.
=83	=83	=83
1EE-	1G	0B-_
[1GG	2D\	.
.	[2G\	.
=84	=84	=84
0GG]	4G\]	0B-]
.	4F\	.
.	2E-\	.
.	1D	.
=85	=85	=85
0CC	3%4CV	[0c
.	[3%2CZ	.
=86	=86	=86
3%4GGV	3%2C]V	0c]
.	3%2F	.
[3%2CCZ	[3%2E-Z	.
=87	=87	=87
3%2CC]V	3%2E-]V	[0G
[3%4CZ	3%2.E-	.
.	3C/Z	.
=88	=88	=88
3%2C]V	3%2E-V	0G]
3%4GGZ	3%2.D	.
.	3E-\Z	.
=89	=89	=89
0D	[0F	[0A
=90	=90	=90
0D	3%2F]V	0A]
.	3%4FZ	.
=91	=91	=91
3%4GGV	3%2.GV	[0B-
.	3F\	.
[3%2GGZ	3%2GZ	.
=92	=92	=92
3%2GG]V	3%2E-V	0B-]
3%4GGZ	3%4DZ	.
=93	=93	=93
3%2AAV	0C	0c
3%2FF	.	.
[3%2CCZ	.	.
=94	=94	=94
3CC/]V	1E-	0G
3DD/	.	.
3%2EE-	.	.
.	3F\	.
3%2CCZ	3%2G	.
=95	=95	=95
0FF	1C	0A
.	1F	.
=96	=96	=96
1r	2E-\	0B-
.	4D\	.
.	4C/	.
1GG	1D	.
=97	=97	=97
2CC/	2C/	1c
2.C/	2.E-\	.
.	.	1G
4D\	4D\	.
2E-\	2C/	.
=98	=98	=98
4F\	2r	1A
4E-\	.	.
4D\	2.D\	.
4C/	.	.
1D	.	1B-
.	4E-\	.
.	2F\	.
=99	=99	=99
1C	2G\	2c\
.	2E-\	2G/
2r	1D	2A/
2GG/	.	2B-\
=100	=100	=100
2.AA/	1C	[0c;
4BB-/	.	.
2C/	2r	.
[2AA/	2C/	.
=101	=101	=101
2AA/]	2.F\	0c_
1FF	.	.
.	4C/	.
.	2F\	.
2EE-/	2G\	.
=102	=102	=102
2.FF/	2.A-\	0c_
4GG/	4B-\	.
2FF/	2A-i\	.
4EE-/	4G\	.
4DD/	4F\	.
=103	=103	=103
0CC;	0E-;	0c]
=104	=104	=104
0r	1.F	0r
.	4E-\	.
.	4D\	.
=105	=105	=105
0r	1E-	1r
.	1F	[1c
=106	=106	=106
0r	2C/	2c\]
.	2E-\	4B-\
.	.	4A/
.	1D	1B-
=107	=107	=107
0r	2C/	1c
.	2.E-\	.
.	.	2G/
.	4D\	.
.	[2G\	2B-\
=108	=108	=108
1r	2G\]	1A
.	2F\	.
[1C	2.G\	[1G
.	4F\	.
=109	=109	=109
2C/]	2E-\	0G]
4BB-/	4D\	.
4AA/	4C/	.
1BB-	1D	.
=110	=110	=110
1C	2C/	2.G/
.	2.E-\	.
.	.	4A/
2GG/	.	2B-\
.	4D\	.
2BB-/	[2D\	[2G/
=111	=111	=111
1AA	2D\]	2G/]
.	2C/	2F/
1GG	2D\	2.G/
.	2E-\	.
.	.	4F/
=112	=112	=112
1AA-	2C/	2E-/
.	4BB-/	4D/
.	4AA-i/	4C/
1GG	1BB-	1D
=113	=113	=113
1r	0C	0C
1CC	.	.
=114	=114	=114
1FF	0AA	1C
1DD	.	1F
=115	=115	=115
1GG	1r	1D
1EE-	1GG	1G
=116	=116	=116
2CC/	1C	1E-
1C	.	.
.	1AA	1C
2AA/	.	.
=117	=117	=117
2.BB-/	1D	2r
.	.	1F
4C/	.	.
2D\	1BB-	.
2GG/	.	[2G/
=118	=118	=118
1BB-	1GG	4G/]
.	.	4A/
.	.	2B-\
2.AA/	2r	2.c\
.	[2C/	.
4GG/	.	4d\
=119	=119	=119
2C/	2C/]	2e-\
2.BB-/	2.D\	2.d\
4C/	4En\	4c\
2D\	2F\	2A/
=120	=120	=120
1GG	2.G\	2B-\
.	.	1G
.	4A\	.
1r	2B-\	.
.	[2A\	2F/
=121	=121	=121
1r	4A\]	1c
.	4G\	.
.	2En\	.
[1BB-	2F\	2.d\
.	[2D\	.
.	.	4e-\
=122	=122	=122
2BB-/]	2D\]	2f\
2C/	2C/	2e-\
2GG/	2.G\	2d\
[2C/	.	[2e-\
.	4F\	.
=123	=123	=123
4C/]	2G\	4e-\]
4BB-/	.	4d\
2C/	2E-\	1c
1GG	1D	.
.	.	2Bni\
=124	=124	=124
2r	1C	1c
2CC/	.	.
2FF/	2r	2A/
2EE-/	2GG/	2B-\
=125	=125	=125
2CC/	2C/	2E-/
2GG/	2BB-/	2D/
2r	2GG/	2.G/
2GG/	2D\	.
.	.	4F/
=126	=126	=126
2C/	2r	2E-/
2BB-/	2D\	2.D/
2GG/	2G\	.
.	.	4E-/
[2D\	2F\	[2F/
=127	=127	=127
4D\]	2D\	2F/]
4E-\	.	.
1F	2.A\	1D
.	4G\	.
[2BB-/	2F\	[2d\
=128	=128	=128
2BB-/]	4G\	2d\]
.	4F\	.
4C/	4E-\	4c\
4D\	4D\	4B-\
1AA	1E-	2c\
.	.	4B-\
.	.	4c\
=129	=129	=129
2r	[0D	1d
2.BB-/	.	.
.	.	2r
4AA/	.	.
[2FF/	.	[2A/
=130	=130	=130
4FF/]	0D]	2A/]
4DD/	.	.
1GG	.	1B-
4FF/	.	4A/
4EE-/	.	4G/
=131	=131	=131
1FF	1D	1A
2GG/	2.BB-/	1D
[2BB-/	.	.
.	4C/	.
=132	=132	=132
4BB-/]	2D\	2r
4C/	.	.
2.D\	1BB-	2.F/
4BB-/	.	4G/
2C/	2AA/	2A/
=133	=133	=133
2D\	2GG/	2B-\
2BB-/	1D	1G
1AA	.	.
.	2C/	2F#i/
=134	=134	=134
0GG	0D	[0G
=135	=135	=135
3%4GGV	3%4DV	0G_
3%2CCZ	3%2CZ	.
=136	=136	=136
3%2.EE-V	3%2BB-V	0G]
.	3%2.GG	.
3FF/	.	.
[3%2GGZ	.	.
.	3AA/Z	.
=137	=137	=137
3GG/]V	3BB-/V	0r
3EE-/	3C/	.
3%2FF	3%2D	.
3%2GGZ	3%2E-Z	.
=138	=138	=138
3%2EE-V	3%2.CV	1r
3%4DDZ	.	.
.	6BBni/	1F
.	6AA/	.
.	3%2BBniZ	.
=139	=139	=139
3%4CCV	3%2.CV	3%2E-V
.	.	3%2.C
.	3D\	.
[3%2CZ	3E-\	.
.	3F\Z	3D/Z
=140	=140	=140
3C/]V	3%2GV	3E-/V
3D\	.	3F/
3%2.E-	3%4CZ	3%2.G
3D\Z	.	3F/Z
=141	=141	=141
3%2CV	3%2CV	3%2E-V
3%2.BBn	3%4GGZ	3%4DZ
3AA/Z	.	.
=142	=142	=142
*	*	*^
0Cl	0Gl	0E-/l	0C\l
*	*	*v	*v
!!LO:LB:i:g=z
=143||	=143||	=143||
*>D	*>D	*>D
*clefF4	*clefF4	*clefGv2
*k[b-e-]	*k[b-e-]	*k[b-e-]
*M2/1	*M2/1	*M2/1
*met(C|)	*met(C|)	*met(C|)
!!section: Osanna II
!!!OMD: Osanna II
[0FF	[0A	[0c
=144	=144	=144
0FF]	1A]	1c]
.	1F	1A
=145	=145	=145
0EE-	0G	1.B-
.	.	4A/
.	.	4G/
=146	=146	=146
0FF	0F	0A
=147	=147	=147
1.C	1.E-	0G
2D\	2F\	.
=148	=148	=148
1.E-	1.G	0C
4D\	4F\	.
4C/	4E-\	.
=149	=149	=149
0BB-	0D	1.F
.	.	4E-/
.	.	4D/
=150	=150	=150
1r	0C	1.E-
[1C	.	.
.	.	2F/
=151	=151	=151
2C/]	0E-	[0G
4BB-/	.	.
4AA/	.	.
1C	.	.
=152	=152	=152
0GG	0D	0G]
=153	=153	=153
1r	0F	1.A-
[1FF	.	.
.	.	2G/
=154	=154	=154
2FF/]	0A-	0F
4EE-/	.	.
4DD/	.	.
1FF	.	.
=155	=155	=155
0CC	[0G	0E-
=156	=156	=156
2r	0G_	1r
1C	.	.
.	.	[1C
[2E-\	.	.
=157	=157	=157
4E-\]	0G]	2C/]
4D\	.	.
2BB-/	.	1D
2GG/	.	.
2C/	.	2E-/
=158	=158	=158
2AA/	1r	2C/
2GG/	.	2.G/
2C/	2.G\	.
.	.	4A/
2BB-/	.	[2B-\
.	4A\	.
=159	=159	=159
1GG	2B-\	4B-\]
.	.	4c\
.	2A\	2d\
1C	2G\	2e-\
.	4F\	4d\
.	4G\	4e-\
=160	=160	=160
1r	4A-i\	4f\
.	4G\	4e-\
.	4F\	4d\
.	4E-\	4c\
2D\	2D\	2B-\
4C/	4E-\	4A/
4D\	4F\	4B-\
=161	=161	=161
4E-\	4G\	4c\
4D\	4F\	4B-\
4C/	4E-\	4A/
4BB-/	4D\	4G/
2AA/	2C/	2F/
2GG/	2D\	2G/
=162	=162	=162
2r	2.E-\	2C/
2.C/	.	2.e-\
.	4D\	.
.	1C	.
4BB-/	.	4d\
2AA/	.	2c\
=163	=163	=163
1GG	2D\	4B-\
.	.	4c\
.	2BB-/	2d\
2EE-/	2C/	2G/
2CC/	2E-\	[2c\
=164	=164	=164
1GG	1D	2c\]
.	.	2B-\
2AA-i/	[1C	2E-/
[2C/	.	[2e-\
=165	=165	=165
2C/]	2C/]	4e-\]
.	.	4d\
2.BB-/	2.D\	2.f\
4C/	4E-\	4e-\
2D\	2F\	4d\
.	.	4c\
=166	=166	=166
2BB-/	2D\	2d\
2C/	2E-\	1c
1GG	1D	.
.	.	2Bni\
=167	=167	=167
0CCl	0Cl	0cl
==	==	==
*-	*-	*-
!!!RDF**kern: l=long note in original notation
!!!RDF**kern: i=editorial accidental
!!!RDF**kern: V=start of tuplet marker
!!!RDF**kern: Z=end of tuplet marker
!!!ENC:	Chris Gage 01-13-2015
!!!END:	2015/01/18/
!!!EED:	Jesse Rodin
!!!EEV:	2015/03/09/
!!!ONB:	Translated from MusicXML and edited on 2015/03/09/ by Craig Sapp
!!muse2ps: T^@{OPR}^u^@{ONM}{. }@{OTL}^C^@{COM}^i2I150v95,95,150Q16
